;FLAVOR:Marlin
;TIME:339
;Filament used: 0.129889m
;Layer height: 0.12
;MINX:97.65
;MINY:98.7
;MINZ:0.12
;MAXX:137.35
;MAXY:136.4
;MAXZ:2.04
;Generated with Cura_SteamEngine main
M140 S50
M105
M190 S50
M104 S200
M105
M109 S200
M82 ;absolute extrusion mode
; Ender 3 Custom Start G-code
G92 E0 ; Reset Extruder
G28 ; Home all axes
G1 Z2.0 F3000 ; Move Z Axis up little to prevent scratching of Heat Bed
G1 X0.1 Y20 Z0.3 F5000.0 ; Move to start position
G1 X0.1 Y200.0 Z0.3 F1500.0 E15 ; Draw the first line
G1 X0.4 Y200.0 Z0.3 F5000.0 ; Move to side a little
G1 X0.4 Y20 Z0.3 F1500.0 E30 ; Draw the second line
G92 E0 ; Reset Extruder
G1 Z2.0 F3000 ; Move Z Axis up little to prevent scratching of Heat Bed
G1 X5 Y20 Z0.3 F5000.0 ; Move over to prevent blob squish
G92 E0
G92 E0
G1 F2700 E-5
;LAYER_COUNT:17
;LAYER:0
M107
G0 F6000 X101.662 Y102.324 Z0.12
G0 X97.651 Y112.253
;TYPE:SKIRT
G1 F2700 E0
G1 F1200 X97.658 Y111.753 E0.00998
G1 X97.693 Y110.901 E0.027
G1 X97.777 Y109.967 E0.04571
G1 X97.905 Y109.187 E0.06148
G1 X98.145 Y108.18 E0.08214
G1 X98.407 Y107.368 E0.09917
G1 X98.749 Y106.494 E0.1179
G1 X99.071 Y105.818 E0.13284
G1 X99.523 Y104.996 E0.15156
G1 X99.983 Y104.294 E0.16831
G1 X100.543 Y103.542 E0.18702
G1 X101.011 Y102.999 E0.20133
G1 X101.662 Y102.324 E0.22004
G1 X102.271 Y101.781 E0.23632
G1 X103.006 Y101.198 E0.25505
G1 X103.656 Y100.752 E0.27078
G1 X105.022 Y99.99 E0.30199
G1 X106.271 Y99.475 E0.32895
G1 X106.512 Y99.391 E0.33405
G1 X107.41 Y99.12 E0.35276
G1 X108.007 Y98.985 E0.36498
G1 X108.266 Y98.934 E0.37025
G1 X109.193 Y98.792 E0.38896
G1 X110.141 Y98.73 E0.40792
G1 X111.581 Y98.7 E0.43666
G1 X123.818 Y98.701 E0.68087
G1 X124.581 Y98.719 E0.6961
G1 X125.198 Y98.749 E0.70842
G1 X126.132 Y98.834 E0.72714
G1 X127.042 Y98.991 E0.74557
G1 X128.393 Y99.359 E0.77351
G1 X128.709 Y99.466 E0.78017
G1 X129.584 Y99.804 E0.79889
G1 X130.426 Y100.216 E0.8176
G1 X131.113 Y100.621 E0.83351
G1 X131.569 Y100.913 E0.84432
G1 X132.336 Y101.452 E0.86302
G1 X133.055 Y102.055 E0.88175
G1 X133.727 Y102.724 E0.90067
G1 X134.043 Y103.067 E0.90998
G1 X134.649 Y103.783 E0.9287
G1 X135.237 Y104.609 E0.94893
G1 X135.957 Y105.878 E0.97805
G1 X136.075 Y106.12 E0.98342
G1 X136.57 Y107.307 E1.00909
G1 X136.654 Y107.547 E1.01416
G1 X136.926 Y108.445 E1.03289
G1 X137.062 Y109.04 E1.04507
G1 X137.113 Y109.297 E1.0503
G1 X137.256 Y110.224 E1.06901
G1 X137.32 Y111.189 E1.08831
G1 X137.35 Y112.631 E1.1171
G1 X137.349 Y122.852 E1.32107
G1 X137.342 Y123.337 E1.33075
G1 X137.308 Y124.184 E1.34766
G1 X137.225 Y125.118 E1.36638
G1 X137.083 Y125.97 E1.38361
G1 X136.835 Y126.983 E1.40443
G1 X136.585 Y127.753 E1.42058
G1 X136.243 Y128.626 E1.43929
G1 X135.921 Y129.298 E1.45416
G1 X135.467 Y130.119 E1.47289
G1 X135.19 Y130.552 E1.48314
G1 X135.003 Y130.829 E1.48981
G1 X134.446 Y131.583 E1.50852
G1 X133.826 Y132.287 E1.52724
G1 X133.33 Y132.772 E1.54108
G1 X132.971 Y133.102 E1.55082
G1 X132.254 Y133.707 E1.56954
G1 X131.514 Y134.238 E1.58771
G1 X130.629 Y134.771 E1.60833
G1 X129.932 Y135.124 E1.62392
G1 X128.729 Y135.625 E1.64993
G1 X128.488 Y135.709 E1.65502
G1 X127.59 Y135.98 E1.67374
G1 X126.993 Y136.115 E1.68595
G1 X126.734 Y136.166 E1.69122
G1 X125.807 Y136.308 E1.70994
G1 X124.859 Y136.37 E1.7289
G1 X123.419 Y136.4 E1.75764
G1 X111.201 Y136.399 E2.00146
G1 X110.349 Y136.381 E2.01847
G1 X109.859 Y136.358 E2.02826
G1 X108.925 Y136.274 E2.04697
G1 X108.08 Y136.133 E2.06407
G1 X107.067 Y135.885 E2.08488
G1 X106.322 Y135.644 E2.10051
G1 X105.448 Y135.303 E2.11923
G1 X104.734 Y134.962 E2.13502
G1 X103.913 Y134.507 E2.15375
G1 X103.221 Y134.053 E2.17027
G1 X102.467 Y133.496 E2.18897
G1 X101.763 Y132.876 E2.2077
G1 X101.278 Y132.38 E2.22154
G1 X100.948 Y132.021 E2.23127
G1 X100.343 Y131.304 E2.24999
G1 X99.796 Y130.538 E2.26878
G1 X99.262 Y129.648 E2.28949
G1 X98.923 Y128.977 E2.30449
G1 X98.405 Y127.726 E2.33151
G1 X98.323 Y127.487 E2.33655
G1 X98.057 Y126.588 E2.35526
G1 X97.886 Y125.792 E2.37151
G1 X97.743 Y124.865 E2.39023
G1 X97.68 Y123.909 E2.40935
G1 X97.65 Y122.469 E2.43809
G1 X97.651 Y112.253 E2.64196
G0 F6000 X98.051 Y112.259
G1 F1200 X98.069 Y111.402 E2.65907
G1 X98.092 Y110.92 E2.6687
G1 X98.176 Y110.003 E2.68707
G1 X98.297 Y109.262 E2.70206
G1 X98.535 Y108.273 E2.72236
G1 X98.786 Y107.497 E2.73863
G1 X99.316 Y106.224 E2.76615
G1 X99.429 Y105.996 E2.77123
G1 X99.874 Y105.19 E2.7896
G1 X100.313 Y104.519 E2.8056
G1 X101.208 Y103.369 E2.83469
G1 X101.95 Y102.603 E2.85597
G1 X102.533 Y102.084 E2.87154
G1 X103.254 Y101.511 E2.88992
G1 X103.94 Y101.051 E2.90641
G1 X105.195 Y100.35 E2.93509
G1 X106.402 Y99.853 E2.96114
G1 X106.643 Y99.769 E2.96623
G1 X107.525 Y99.504 E2.98461
G1 X108.343 Y99.327 E3.00132
G1 X109.253 Y99.188 E3.01969
G1 X110.151 Y99.13 E3.03764
G1 X111.581 Y99.1 E3.06619
G1 X123.812 Y99.101 E3.31027
G1 X124.208 Y99.107 E3.31817
G1 X125.179 Y99.149 E3.33757
G1 X126.096 Y99.233 E3.35595
G1 X126.96 Y99.382 E3.37344
G1 X128.265 Y99.738 E3.40044
G1 X128.581 Y99.845 E3.40709
G1 X129.439 Y100.178 E3.42546
G1 X130.265 Y100.584 E3.44383
G1 X130.897 Y100.958 E3.45848
G1 X131.353 Y101.25 E3.46929
G1 X132.106 Y101.78 E3.48767
G1 X132.81 Y102.373 E3.50603
G1 X133.433 Y102.995 E3.5236
G1 X133.749 Y103.338 E3.53291
G1 X134.343 Y104.041 E3.55128
G1 X134.902 Y104.827 E3.57052
G1 X135.598 Y106.053 E3.59866
G1 X135.716 Y106.295 E3.60403
G1 X136.193 Y107.439 E3.62877
G1 X136.277 Y107.679 E3.63384
G1 X136.543 Y108.561 E3.65222
G1 X136.72 Y109.375 E3.66885
G1 X136.86 Y110.285 E3.68722
G1 X136.92 Y111.198 E3.70548
G1 X136.95 Y112.631 E3.73408
G1 X136.949 Y122.846 E3.93794
G1 X136.932 Y123.668 E3.95434
G1 X136.909 Y124.165 E3.96427
G1 X136.826 Y125.082 E3.98265
G1 X136.691 Y125.892 E3.99903
G1 X136.447 Y126.888 E4.0195
G1 X136.206 Y127.623 E4.03493
G1 X135.87 Y128.48 E4.0533
G1 X135.563 Y129.12 E4.06747
G1 X135.117 Y129.926 E4.08585
G1 X134.671 Y130.605 E4.10206
G1 X134.124 Y131.345 E4.12043
G1 X133.514 Y132.035 E4.13881
G1 X133.06 Y132.478 E4.15147
G1 X132.701 Y132.808 E4.1612
G1 X131.996 Y133.401 E4.17958
G1 X131.291 Y133.906 E4.19689
G1 X130.422 Y134.428 E4.21712
G1 X129.756 Y134.765 E4.23201
G1 X128.598 Y135.247 E4.25704
G1 X128.357 Y135.331 E4.26214
G1 X127.475 Y135.596 E4.28051
G1 X126.657 Y135.773 E4.29722
G1 X125.747 Y135.912 E4.31559
G1 X124.849 Y135.97 E4.33355
G1 X123.419 Y136 E4.36209
G1 X111.206 Y135.999 E4.60581
G1 X110.714 Y135.992 E4.61563
G1 X109.878 Y135.958 E4.63233
G1 X108.961 Y135.875 E4.6507
G1 X108.158 Y135.741 E4.66695
G1 X107.162 Y135.497 E4.68741
G1 X106.451 Y135.265 E4.70234
G1 X105.593 Y134.93 E4.72072
G1 X104.913 Y134.604 E4.73577
G1 X103.722 Y133.908 E4.7633
G1 X103.445 Y133.721 E4.76997
G1 X102.705 Y133.174 E4.78833
G1 X102.015 Y132.564 E4.80671
G1 X101.572 Y132.11 E4.81937
G1 X101.242 Y131.751 E4.8291
G1 X100.649 Y131.046 E4.84748
G1 X100.117 Y130.3 E4.86577
G1 X99.4 Y129.044 E4.89463
G1 X99.282 Y128.802 E4.9
G1 X98.784 Y127.596 E4.92604
G1 X98.702 Y127.357 E4.93108
G1 X98.441 Y126.474 E4.94946
G1 X98.278 Y125.715 E4.96495
G1 X98.139 Y124.804 E4.98334
G1 X98.08 Y123.899 E5.00144
G1 X98.05 Y122.469 E5.02998
G1 X98.051 Y112.259 E5.23374
G0 F6000 X98.451 Y112.264
G1 F1200 X98.458 Y111.764 E5.24371
G1 X98.492 Y110.939 E5.26019
G1 X98.575 Y110.04 E5.27821
G1 X98.713 Y109.245 E5.29431
G1 X98.924 Y108.366 E5.31235
G1 X99.164 Y107.627 E5.32786
G1 X99.675 Y106.402 E5.35434
G1 X99.788 Y106.174 E5.35942
G1 X100.224 Y105.383 E5.37745
G1 X100.644 Y104.744 E5.39271
G1 X101.522 Y103.616 E5.42123
G1 X102.563 Y102.587 E5.45044
G1 X102.795 Y102.386 E5.45657
G1 X103.503 Y101.825 E5.4746
G1 X104.156 Y101.388 E5.49028
G1 X105.367 Y100.711 E5.51796
G1 X106.534 Y100.23 E5.54315
G1 X106.775 Y100.146 E5.54824
G1 X107.64 Y99.887 E5.56626
G1 X108.42 Y99.719 E5.58219
G1 X109.313 Y99.584 E5.60021
G1 X110.16 Y99.53 E5.61715
G1 X111.581 Y99.5 E5.64551
G1 X123.651 Y99.5 E5.88638
G1 X124.202 Y99.507 E5.89738
G1 X125.159 Y99.548 E5.91649
G1 X126.059 Y99.632 E5.93453
G1 X126.879 Y99.774 E5.95114
G1 X128.136 Y100.117 E5.97714
G1 X128.452 Y100.224 E5.9838
G1 X129.294 Y100.551 E6.00182
G1 X130.104 Y100.951 E6.01985
G1 X130.681 Y101.295 E6.03326
G1 X131.137 Y101.587 E6.04406
G1 X131.876 Y102.107 E6.0621
G1 X132.565 Y102.691 E6.08012
G1 X133.139 Y103.266 E6.09633
G1 X133.455 Y103.609 E6.10564
G1 X134.037 Y104.299 E6.12366
G1 X134.568 Y105.048 E6.14198
G1 X135.238 Y106.229 E6.16907
G1 X135.356 Y106.471 E6.17445
G1 X135.815 Y107.571 E6.19823
G1 X135.899 Y107.811 E6.20331
G1 X136.16 Y108.676 E6.22134
G1 X136.328 Y109.453 E6.2372
G1 X136.464 Y110.345 E6.25521
G1 X136.52 Y111.207 E6.27245
G1 X136.55 Y112.631 E6.30087
G1 X136.549 Y122.84 E6.5046
G1 X136.542 Y123.325 E6.51428
G1 X136.509 Y124.147 E6.5307
G1 X136.427 Y125.046 E6.54872
G1 X136.299 Y125.815 E6.56427
G1 X136.058 Y126.792 E6.58435
G1 X135.828 Y127.493 E6.59908
G1 X135.266 Y128.838 E6.62817
G1 X134.527 Y130.104 E6.65742
G1 X134.34 Y130.381 E6.66409
G1 X133.802 Y131.107 E6.68212
G1 X133.202 Y131.782 E6.70015
G1 X132.789 Y132.183 E6.71163
G1 X132.43 Y132.513 E6.72136
G1 X131.739 Y133.095 E6.73939
G1 X131.051 Y133.585 E6.75625
G1 X129.827 Y134.285 E6.78439
G1 X129.581 Y134.405 E6.78985
G1 X128.466 Y134.87 E6.81396
G1 X128.225 Y134.954 E6.81905
G1 X127.36 Y135.213 E6.83707
G1 X126.58 Y135.381 E6.85299
G1 X125.687 Y135.516 E6.87102
G1 X124.84 Y135.57 E6.88795
G1 X123.419 Y135.6 E6.91632
G1 X111.212 Y135.599 E7.15992
G1 X110.387 Y135.582 E7.17639
G1 X109.897 Y135.559 E7.18618
G1 X108.997 Y135.477 E7.20421
G1 X108.209 Y135.344 E7.22016
G1 X106.844 Y134.976 E7.24837
G1 X106.58 Y134.886 E7.25394
G1 X105.739 Y134.557 E7.27196
G1 X105.091 Y134.246 E7.28631
G1 X103.946 Y133.577 E7.31277
G1 X103.669 Y133.39 E7.31944
G1 X102.943 Y132.852 E7.33747
G1 X102.268 Y132.252 E7.35549
G1 X101.867 Y131.839 E7.36698
G1 X101.537 Y131.48 E7.37671
G1 X100.955 Y130.789 E7.39474
G1 X100.449 Y130.077 E7.41217
G1 X99.76 Y128.868 E7.43994
G1 X99.642 Y128.626 E7.44532
G1 X99.162 Y127.466 E7.47037
G1 X99.08 Y127.227 E7.47541
G1 X98.825 Y126.361 E7.49343
G1 X98.671 Y125.637 E7.5082
G1 X98.535 Y124.744 E7.52622
G1 X98.48 Y123.89 E7.5433
G1 X98.45 Y122.469 E7.57167
G1 X98.451 Y112.264 E7.77532
G1 F2700 E2.77532
;MESH:Untitled (3).stl
G0 F6000 X107.985 Y112.264
G0 X109.07 Y112.264
G0 X109.86 Y123.667
G0 X110.085 Y123.985
G0 X110.684 Y124.4
;TYPE:WALL-INNER
G1 F2700 E7.77532
G1 F1200 X124.316 Y124.4 E8.04736
G1 X124.609 Y124.363 E8.05325
G1 X124.912 Y124.236 E8.05981
G1 X125.141 Y124.009 E8.06624
G1 X125.271 Y123.779 E8.07152
G1 X125.35 Y123.484 E8.07761
G1 X125.35 Y111.768 E8.31142
G1 X125.339 Y111.571 E8.31535
G1 X125.271 Y111.32 E8.32054
G1 X125.139 Y111.09 E8.32584
G1 X124.917 Y110.867 E8.33211
G1 X124.613 Y110.738 E8.33871
G1 X124.322 Y110.7 E8.34456
G1 X110.563 Y110.7 E8.61914
G1 X110.271 Y110.778 E8.62517
G1 X109.984 Y110.941 E8.63176
G1 X109.789 Y111.197 E8.63818
G1 X109.688 Y111.441 E8.64345
G1 X109.65 Y111.734 E8.64934
G1 X109.65 Y123.487 E8.88389
G1 X109.728 Y123.779 E8.88992
G1 X109.891 Y124.065 E8.89649
G1 X110.149 Y124.262 E8.90297
G1 X110.391 Y124.362 E8.90819
G1 X110.684 Y124.4 E8.91409
G0 F6000 X110.287 Y124.75
G1 F1200 X110.671 Y124.8 E8.92182
G1 X124.329 Y124.8 E9.19438
G1 X124.713 Y124.75 E9.2021
G1 X125.138 Y124.573 E9.21129
G1 X125.46 Y124.252 E9.22036
G1 X125.689 Y123.85 E9.2296
G1 X125.75 Y123.379 E9.23907
G1 X125.75 Y111.768 E9.47078
G1 X125.736 Y111.518 E9.47578
G1 X125.618 Y111.075 E9.48493
G1 X125.284 Y110.64 E9.49588
G1 X124.888 Y110.41 E9.50501
G1 X124.484 Y110.3 E9.51337
G1 X110.671 Y110.3 E9.78902
G1 X110.287 Y110.35 E9.79675
G1 X109.948 Y110.491 E9.80408
G1 X109.659 Y110.712 E9.81134
G1 X109.441 Y110.998 E9.81851
G1 X109.3 Y111.337 E9.82584
G1 X109.25 Y111.721 E9.83357
G1 X109.25 Y123.379 E10.06622
G1 X109.311 Y123.85 E10.0757
G1 X109.586 Y124.332 E10.08677
G1 X109.949 Y124.609 E10.09588
G1 X110.287 Y124.75 E10.10319
G0 F6000 X110.497 Y125.2
;TYPE:WALL-OUTER
G1 F1200 X124.503 Y125.2 E10.3827
G1 X124.817 Y125.137 E10.38909
G1 X125.251 Y124.957 E10.39846
G1 X125.447 Y124.826 E10.40317
G1 X125.779 Y124.495 E10.41252
G1 X126.012 Y124.086 E10.42192
G1 X126.15 Y123.574 E10.4325
G1 X126.15 Y111.768 E10.6681
G1 X126.134 Y111.465 E10.67416
G1 X126.012 Y111.012 E10.68352
G1 X125.776 Y110.603 E10.69294
G1 X125.451 Y110.277 E10.70213
G1 X125.043 Y110.04 E10.71154
G1 X124.526 Y109.9 E10.72223
G1 X110.497 Y109.9 E11.0022
G1 X110.183 Y109.963 E11.00859
G1 X109.749 Y110.143 E11.01796
G1 X109.376 Y110.428 E11.02733
G1 X109.093 Y110.799 E11.03664
G1 X108.913 Y111.233 E11.04602
G1 X108.85 Y111.547 E11.05241
G1 X108.85 Y123.574 E11.29242
G1 X108.988 Y124.086 E11.303
G1 X109.221 Y124.495 E11.3124
G1 X109.376 Y124.672 E11.31709
G1 X109.749 Y124.957 E11.32646
G1 X110.183 Y125.137 E11.33584
G1 X110.497 Y125.2 E11.34223
G0 F6000 X110.542 Y124.492
G0 X109.924 Y123.928
G0 X110.143 Y123.782
;TYPE:SKIN
G1 F1200 X110.336 Y123.949 E11.34732
G1 X110.702 Y124.04 E11.35485
G1 X124.298 Y124.04 E11.62617
G1 X124.511 Y124.012 E11.63046
G1 X124.744 Y123.897 E11.63564
G1 X124.849 Y123.791 E11.63862
G1 X124.962 Y123.561 E11.64373
G1 X124.99 Y123.348 E11.64802
G1 X124.99 Y111.744 E11.87959
G1 X124.938 Y111.464 E11.88528
G1 X124.796 Y111.25 E11.8904
G1 X124.586 Y111.112 E11.89542
G1 X124.394 Y111.061 E11.89938
G1 X110.609 Y111.06 E12.17447
G1 X110.267 Y111.193 E12.1818
G1 X110.102 Y111.383 E12.18682
G1 X110.01 Y111.752 E12.19441
G1 X110.011 Y123.442 E12.42769
G1 X110.143 Y123.782 E12.43497
G0 F6000 X110.21 Y123.221
G1 F1200 X110.828 Y123.839 E12.45241
G0 F6000 X111.394 Y123.839
G1 F1200 X110.21 Y122.655 E12.48583
G0 F6000 X110.21 Y122.089
G1 F1200 X111.959 Y123.839 E12.5352
G0 F6000 X112.525 Y123.839
G1 F1200 X110.21 Y121.524 E12.60054
G0 F6000 X110.21 Y120.958
G1 F1200 X113.091 Y123.839 E12.68185
G0 F6000 X113.656 Y123.839
G1 F1200 X110.21 Y120.392 E12.77911
G0 F6000 X110.21 Y119.827
G1 F1200 X114.222 Y123.839 E12.89234
G0 F6000 X114.788 Y123.839
G1 F1200 X110.21 Y119.261 E13.02154
G0 F6000 X110.21 Y118.695
G1 F1200 X115.353 Y123.839 E13.1667
G0 F6000 X115.919 Y123.839
G1 F1200 X110.21 Y118.129 E13.32784
G0 F6000 X110.21 Y117.564
G1 F1200 X116.485 Y123.839 E13.50493
G0 F6000 X117.05 Y123.839
G1 F1200 X110.21 Y116.998 E13.69799
G0 F6000 X110.21 Y116.432
G1 F1200 X117.617 Y123.839 E13.90703
G0 F6000 X118.182 Y123.839
G1 F1200 X110.21 Y115.867 E14.13201
G0 F6000 X110.21 Y115.301
G1 F1200 X118.748 Y123.839 E14.37297
G0 F6000 X119.314 Y123.839
G1 F1200 X110.21 Y114.735 E14.62991
G0 F6000 X110.21 Y114.17
G1 F1200 X119.88 Y123.839 E14.9028
G0 F6000 X120.445 Y123.839
G1 F1200 X110.21 Y113.604 E15.19166
G0 F6000 X110.21 Y113.038
G1 F1200 X121.011 Y123.839 E15.49648
G0 F6000 X121.577 Y123.839
G1 F1200 X110.21 Y112.473 E15.81727
G0 F6000 X110.21 Y111.907
G1 F1200 X122.142 Y123.839 E16.15402
G0 F6000 X122.708 Y123.839
G1 F1200 X110.312 Y111.444 E16.50385
G0 F6000 X110.694 Y111.259
G1 F1200 X123.274 Y123.839 E16.85888
G0 F6000 X123.839 Y123.839
G1 F1200 X111.259 Y111.259 E17.21392
G0 F6000 X111.825 Y111.259
G1 F1200 X124.406 Y123.84 E17.56898
G0 F6000 X124.716 Y123.585
G1 F1200 X112.391 Y111.259 E17.91683
G0 F6000 X112.956 Y111.259
G1 F1200 X124.788 Y123.091 E18.25076
G0 F6000 X124.788 Y122.526
G1 F1200 X113.522 Y111.259 E18.56872
G0 F6000 X114.088 Y111.259
G1 F1200 X124.788 Y121.96 E18.87071
G0 F6000 X124.788 Y121.394
G1 F1200 X114.653 Y111.259 E19.15674
G0 F6000 X115.219 Y111.259
G1 F1200 X124.788 Y120.828 E19.4268
G0 F6000 X124.788 Y120.263
G1 F1200 X115.785 Y111.259 E19.6809
G0 F6000 X116.35 Y111.259
G1 F1200 X124.788 Y119.697 E19.91904
G0 F6000 X124.788 Y119.131
G1 F1200 X116.916 Y111.259 E20.1412
